svgs/ymusic.svg

<svg id="Layer_1" data-name="Layer 1" xmlns="http://www.w3.org/2000/svg" viewBox="0 0 24 24">
  <g>
    <path d="M3.29645,16.90668V7.09375a10.01474,10.01474,0,0,0,0,9.81293Z"/>
    <path d="M4.849,18.97766a10.01545,10.01545,0,0,0,1.55249,1.30145V3.72089A10.02056,10.02056,0,0,0,4.849,5.02271Z"/>
    <path d="M7.954,4.96783V19.03217l6.09039-3.51612,6.09-3.516-6.09-3.516ZM9.50647,16.3432V7.6568L17.02936,12Z"/>
    <path d="M20.6178,17.09906,12.12878,22A9.99508,9.99508,0,0,0,20.6178,17.09906Z"/>
    <path d="M7.6488,21.0011a9.96408,9.96408,0,0,0,1.90265.69452l6.04541-3.4906,6.04346-3.489v-.00036a9.934,9.934,0,0,0,.34747-1.99292l-7.16742,4.13781Z"/>
    <path d="M21.98779,11.27728a9.93862,9.93862,0,0,0-.34747-1.99292V9.284L15.59686,5.795,9.551,2.30438a9.92844,9.92844,0,0,0-1.90186.695l7.1712,4.14014Z"/>
    <path d="M12.12842,2l8.489,4.90094A9.9946,9.9946,0,0,0,12.12842,2Z"/>
  </g>
</svg>

<svg xmlns="http://www.w3.org/2000/svg" data-name="Layer 1" viewBox="0 0 24 24"><path d="M3.296 16.907V7.094a10.015 10.015 0 0 0 0 9.813m1.553 2.071a10.015 10.015 0 0 0 1.552 1.301V3.721A10.02 10.02 0 0 0 4.85 5.023Zm3.105-14.01v14.064l6.09-3.516L20.134 12l-6.09-3.516Zm1.552 11.375V7.657L17.03 12Zm11.112.757-8.49 4.9a9.995 9.995 0 0 0 8.49-4.9M7.649 21.001a9.964 9.964 0 0 0 1.902.695l6.046-3.491 6.043-3.489a9.934 9.934 0 0 0 .348-1.993L14.82 16.86Zm14.339-9.724a9.939 9.939 0 0 0-.348-1.993l-6.043-3.489-6.046-3.49a9.928 9.928 0 0 0-1.902.694l7.171 4.14ZM12.128 2l8.49 4.9a9.995 9.995 0 0 0-8.49-4.9"/></svg>
